assets/icon_2332/icon_2332.svg

<?xml version="1.0" encoding="UTF-8" standalone="no"?>
<svg
   xmlns:dc="http://purl.org/dc/elements/1.1/"
   xmlns:cc="http://creativecommons.org/ns#"
   xmlns:rdf="http://www.w3.org/1999/02/22-rdf-syntax-ns#"
   xmlns:svg="http://www.w3.org/2000/svg"
   xmlns="http://www.w3.org/2000/svg"
   xmlns:xlink="http://www.w3.org/1999/xlink"
   xmlns:sodipodi="http://sodipodi.sourceforge.net/DTD/sodipodi-0.dtd"
   xmlns:inkscape="http://www.inkscape.org/namespaces/inkscape"
   version="1.1"
   id="Layer_1"
   x="0px"
   y="0px"
   width="100px"
   height="100px"
   viewBox="0 0 100 100"
   enable-background="new 0 0 100 100"
   xml:space="preserve"
   inkscape:version="0.48.4 r9939"
   sodipodi:docname="icon_2332.svg"
   inkscape:export-filename="/home/gilles/Developpement/Android/Projets/Trolly/res/drawable/icon.png"
   inkscape:export-xdpi="57.599998"
   inkscape:export-ydpi="57.599998"><metadata
     id="metadata3063"><rdf:RDF><cc:Work
         rdf:about=""><dc:format>image/svg+xml</dc:format><dc:type
           rdf:resource="http://purl.org/dc/dcmitype/StillImage" /><dc:title></dc:title></cc:Work></rdf:RDF></metadata><defs
     id="defs3061"><linearGradient
       id="linearGradient3835"><stop
         style="stop-color:#004d00;stop-opacity:1;"
         offset="0"
         id="stop3837" /><stop
         style="stop-color:#008e00;stop-opacity:1;"
         offset="1"
         id="stop3839" /></linearGradient><linearGradient
       inkscape:collect="always"
       xlink:href="#linearGradient3835"
       id="linearGradient3841"
       x1="47.714947"
       y1="102.01091"
       x2="47.714947"
       y2="-1.0427082"
       gradientUnits="userSpaceOnUse"
       gradientTransform="matrix(0.93895738,0,0,0.96851706,3.9497245,1.2962944)" /></defs><sodipodi:namedview
     pagecolor="#ffffff"
     bordercolor="#666666"
     borderopacity="1"
     objecttolerance="10"
     gridtolerance="10"
     guidetolerance="10"
     inkscape:pageopacity="0"
     inkscape:pageshadow="2"
     inkscape:window-width="1366"
     inkscape:window-height="709"
     id="namedview3059"
     showgrid="false"
     inkscape:zoom="5.0653442"
     inkscape:cx="49.044053"
     inkscape:cy="49.713115"
     inkscape:window-x="0"
     inkscape:window-y="27"
     inkscape:window-maximized="1"
     inkscape:current-layer="Layer_1" /><rect
     style="fill:url(#linearGradient3841);fill-opacity:1;fill-rule:evenodd;stroke:none"
     id="rect3065"
     width="100"
     height="100"
     x="0"
     y="0"
     rx="50"
     ry="50" /><g
     id="g3843"
     transform="matrix(0.73150887,0,0,0.73150887,13.424557,13.716675)"><circle
       style="fill:#ffffff;fill-opacity:1"
       id="circle3053"
       r="6.763"
       cy="87.261002"
       cx="10.616"
       d="m 17.379,87.261002 c 0,3.735101 -3.027898,6.763 -6.763,6.763 -3.7351016,0 -6.7629998,-3.027899 -6.7629998,-6.763 0,-3.735102 3.0278982,-6.763 6.7629998,-6.763 3.735102,0 6.763,3.027898 6.763,6.763 z"
       sodipodi:cx="10.616"
       sodipodi:cy="87.261002"
       sodipodi:rx="6.763"
       sodipodi:ry="6.763" /><circle
       style="fill:#ffffff;fill-opacity:1"
       id="circle3055"
       r="7.6059999"
       cy="86.417"
       cx="65.592003"
       d="m 73.198003,86.417 c 0,4.200678 -3.405322,7.606 -7.606,7.606 -4.200678,0 -7.606,-3.405322 -7.606,-7.606 0,-4.200678 3.405322,-7.606 7.606,-7.606 4.200678,0 7.606,3.405322 7.606,7.606 z"
       sodipodi:cx="65.592003"
       sodipodi:cy="86.417"
       sodipodi:rx="7.6059999"
       sodipodi:ry="7.6059999" /><path
       style="fill:#ffffff;fill-opacity:1"
       id="path3057"
       d="M 99.992,8.152 81.017,8.179 80.953,8.152 80.945,8.179 H 80.882 V 8.317 L 78.22,15.22 0,21.398 4.458,59.883 H 60.989 L 57.375,69.248 6.384,72.424 4.898,77.869 64.54,76.81 65.126,74.542 86.99,17.347 100,17.328 99.992,8.152 z M 75.118,23.258 69.611,37.532 H 56.663 v -13.18 l 18.011,-1.423 c 0.143,0.116 0.298,0.216 0.444,0.329 z M 36.362,40.493 V 52.476 H 24.569 V 40.493 H 36.362 z M 24.569,37.532 V 26.887 L 36.361,25.955 V 37.532 H 24.569 z m 16.007,2.961 H 52.45 V 52.476 H 40.576 V 40.493 z m 0,-2.961 V 25.622 L 52.451,24.684 V 37.532 H 40.576 z M 20.355,27.22 V 37.532 H 9.325 L 8.242,28.177 20.355,27.22 z M 9.667,40.493 h 10.688 v 11.983 h -9.3 L 9.667,40.493 z M 56.663,52.477 V 40.493 h 11.806 l -4.623,11.983 h -7.183 z"
       inkscape:connector-curvature="0" /></g></svg>

<svg xmlns="http://www.w3.org/2000/svg" xmlns:xlink="http://www.w3.org/1999/xlink" version="1.1" id="Layer_1" x="0px" y="0px" width="100px" height="100px" viewBox="0 0 100 100" enable-background="new 0 0 100 100" xml:space="preserve">
<circle fill="#000000" cx="10.616" cy="87.261" r="6.763"/>
<circle fill="#000000" cx="65.592" cy="86.417" r="7.606"/>
<path fill="#000000" d="M99.992,8.152L81.017,8.179l-0.064-0.027l-0.008,0.027h-0.063v0.138L78.22,15.22L0,21.398l4.458,38.485  h56.531l-3.614,9.365L6.384,72.424l-1.486,5.445l59.642-1.059l0.586-2.268L86.99,17.347L100,17.328L99.992,8.152z M75.118,23.258  l-5.507,14.274H56.663v-13.18l18.011-1.423C74.817,23.045,74.972,23.145,75.118,23.258z M36.362,40.493v11.983H24.569V40.493H36.362  z M24.569,37.532V26.887l11.792-0.932v11.577H24.569z M40.576,40.493H52.45v11.983H40.576V40.493z M40.576,37.532v-11.91  l11.875-0.938v12.848H40.576z M20.355,27.22v10.312H9.325l-1.083-9.355L20.355,27.22z M9.667,40.493h10.688v11.983h-9.3  L9.667,40.493z M56.663,52.477V40.493h11.806l-4.623,11.983H56.663z"/>
</svg>
